X:23
T:Estampie
R:0Estampie
Z:Transcrit et/ou corrigé par B@D - 2007-08-23. Pour toute observation mailto:-@-
%Z:Complété par Ungaresca, par les Musiciens de Provence (?) cela donnait : Musique de Jongleur ...
M:6/8
K:C
c2B c2d | e3 e2f | g3 g2f | e3 e3 :: 
e2g e2g | f3 d2e | f2d e2c | d3 B2c |1 d2d B2c | d3 d3 :|2 d2e c2B | c6 |]




%%header "$P0	 $IR 	$P1"
%%footer $D - Éditions Galouvielle - 2009 - À usage librement privé dans le cadre familial

